icons/snooze.svg

<svg
  xmlns="http://www.w3.org/2000/svg"
  viewBox="0 0 500 500"
  width="500"
  height="500"
  fill="#ffffff"
>
  <path d="M12.69 476.67l71.75-103.25v-.9h-65v-28.16h109.25V364L58.52 465.94v.9h71.29V495H12.69z" />
  <path d="M191.44 308.06l71.75-103.25v-.9h-65v-28.16h109.25v19.67l-70.17 101.91v.9h71.29v28.16H191.44z" />
  <path d="M370.19 137.31l71.74-103.25v-.9h-65V5h109.26v19.67L416 126.58v.9h71.3v28.16H370.19z" />
</svg>

<svg xmlns="http://www.w3.org/2000/svg" viewBox="0 0 500 500">
  <g id="snooze">
    <path id="z3" d="M12.69,476.67,84.44,373.42v-.9h-65V344.36H128.69V364L58.52,465.94v.9h71.29V495H12.69Z"/>
    <path id="z2" d="M191.44,308.06l71.75-103.25v-.9h-65V175.75H307.44v19.67L237.27,297.33v.9h71.29v28.16H191.44Z"/>
    <path id="z1" d="M370.19,137.31,441.93,34.06v-.9h-65V5H486.19V24.67L416,126.58v.9h71.3v28.16H370.19Z"/>
  </g>
</svg>
